icons/svg/24x24/help squircle/filled.svg

<svg width="24" height="24" fill="none" xmlns="http://www.w3.org/2000/svg">
  <path fill-rule="evenodd" clip-rule="evenodd" d="M14.055 11.832c-.75.5-1.055.745-1.055 1.168v1h-2v-1c0-1.535 1.124-2.285 1.946-2.832C13.695 9.668 14 9.355 14 9c0-.603-.856-1-2-1-.804 0-2 .269-2 1a1 1 0 11-2 0c0-1.883 1.683-3 4-3 2.318 0 4 1.117 4 3 0 1.535-1.124 2.285-1.945 2.832zM12 18a1.5 1.5 0 110-3.001A1.5 1.5 0 0112 18zm9.442-11.246a5.472 5.472 0 00-4.196-4.195A24.711 24.711 0 0012 2c-1.8 0-3.554.192-5.245.558a5.473 5.473 0 00-4.197 4.196A24.827 24.827 0 002 12c0 1.8.193 3.555.558 5.245a5.473 5.473 0 004.196 4.196C8.446 21.808 10.2 22 12 22c1.8 0 3.555-.192 5.246-.559a5.472 5.472 0 004.196-4.196A24.76 24.76 0 0022 12c0-1.8-.192-3.555-.558-5.246z" fill="#000"/>
</svg>

<svg xmlns="http://www.w3.org/2000/svg" width="24" height="24" viewBox="0 0 24 24">
  <path fill-rule="evenodd" d="M12,15.5 C12.828,15.5 13.5,16.172 13.5,17 C13.5,17.828 12.828,18.5 12,18.5 C11.172,18.5 10.5,17.828 10.5,17 C10.5,16.172 11.172,15.5 12,15.5 M14.055,11.832 C13.306,12.332 13,12.577 13,13 C13,13.553 12.553,14 12,14 C11.447,14 11,13.553 11,13 C11,11.465 12.124,10.715 12.945,10.168 C13.694,9.668 14,9.423 14,9 C14,8.773 13.949,8.438 13.508,8.145 C13.132,7.894 12.582,7.75 12,7.75 C11.309,7.75 10,8.012 10,9 C10,9.553 9.553,10 9,10 C8.447,10 8,9.553 8,9 C8,7.117 9.683,5.75 12,5.75 C14.317,5.75 16,7.117 16,9 C16,10.535 14.876,11.285 14.055,11.832 M21.441,6.754 C20.987,4.652 19.348,3.013 17.246,2.559 C15.555,2.192 13.8,2 12,2 C10.2,2 8.445,2.192 6.755,2.558 C4.651,3.012 3.013,4.651 2.558,6.754 C2.192,8.444 2,10.199 2,12 C2,13.8 2.192,15.555 2.558,17.245 C3.013,19.348 4.651,20.987 6.754,21.441 C8.445,21.808 10.2,22 12,22 C13.8,22 15.555,21.808 17.246,21.441 C19.348,20.987 20.987,19.348 21.441,17.245 C21.808,15.555 22,13.8 22,12 C22,10.2 21.808,8.445 21.441,6.754"/>
</svg>
